assets/Bone/Flat/bone_flat.svg

<svg width="32" height="32" viewBox="0 0 32 32" fill="none" xmlns="http://www.w3.org/2000/svg">
<path fill-rule="evenodd" clip-rule="evenodd" d="M26.7063 4.22157C26.5114 3.27005 25.771 2.21299 24.7022 1.57804C23.5708 0.905943 22.0628 0.699238 20.415 1.49908C18.6052 2.37751 17.956 3.79692 17.8471 5.08947C17.7498 6.24411 18.0841 7.27164 18.2036 7.63887L18.2199 7.68909C18.2745 7.85888 18.2873 7.99041 18.2753 8.08474C18.2658 8.15942 18.2392 8.23757 18.1445 8.33222C17.8006 8.6761 14.0908 12.3509 11.3882 15.028L11.3568 15.0592C10.0359 16.3676 8.96115 17.4322 8.64743 17.7434C8.44443 17.9447 8.33019 18.02 8.27733 18.0475C8.25294 18.0601 8.2501 18.0597 8.24622 18.0591L8.24341 18.0588C8.20075 18.0581 8.12628 18.0475 7.91248 17.9956L7.83071 17.9755C7.64521 17.9299 7.39677 17.8687 7.10536 17.8191C6.30916 17.6836 5.28709 17.6038 4.27404 17.9021C3.21907 18.2127 2.24693 18.9128 1.56999 20.1876C0.0486906 23.0523 1.88523 26.6804 5.3709 26.7877C5.37348 26.8283 5.37506 26.8754 5.37506 26.93C5.37506 27.8194 5.82243 29.0303 6.75838 29.8964C7.76138 30.8245 9.26282 31.3025 11.1895 30.7507L11.2166 30.7429L11.2432 30.7336C12.9352 30.144 13.7783 28.792 14.049 27.4397C14.2923 26.224 14.0979 24.9178 13.6038 23.9696C13.6931 23.8614 13.814 23.7257 13.9832 23.539C14.6795 22.7707 20.7438 16.8704 23.6256 14.0778C23.7641 13.9436 23.8705 13.895 23.9682 13.8767C24.0743 13.8568 24.2721 13.8543 24.6185 13.9838C25.8892 14.4591 28.4186 14.7074 30.2309 12.2131C31.2285 10.8401 31.1159 9.14704 30.5056 7.84917C29.9028 6.56725 28.6964 5.41871 27.1652 5.24858C27.0066 5.23096 26.9355 5.20197 26.9132 5.19097L26.9104 5.18537C26.89 5.14403 26.8618 5.06183 26.8265 4.88205C26.811 4.80322 26.7968 4.72074 26.7797 4.62133L26.774 4.58839C26.7552 4.47886 26.7332 4.35295 26.7063 4.22157ZM13.4773 23.7439L13.4789 23.747C13.4778 23.7449 13.4773 23.7439 13.4773 23.7439Z" fill="#9B9B9B"/>
<path d="M9.35155 18.4534C10.3047 17.508 18.3359 9.55492 18.8515 9.0393C19.3672 8.52367 19.3375 7.89844 19.1719 7.38305C18.9609 6.7268 17.9472 3.80839 20.8515 2.39868C23.5234 1.1018 25.4609 3.12525 25.7265 4.42219C25.9144 5.33922 25.8594 6.10962 27.0547 6.24243C29.2344 6.48462 30.875 9.62524 29.4219 11.6252C27.9687 13.6252 25.9922 13.4299 24.9687 13.0472C24.0365 12.6985 23.422 12.8825 22.9297 13.3596C20.0703 16.1305 13.9672 22.0674 13.2422 22.8674C12.5172 23.6674 12.378 23.8584 12.6328 24.2815C13.5078 25.7346 13.4922 28.8908 10.914 29.7893C7.6953 30.7112 6.37498 28.1487 6.37498 26.9299C6.37498 25.883 5.94588 25.7994 5.4453 25.7893C2.71906 25.7342 1.24998 22.9222 2.45311 20.6565C3.55149 18.5881 5.46874 18.5549 6.93749 18.8049C8.11248 19.0049 8.39842 19.3987 9.35155 18.4534Z" fill="white"/>
<path d="M25.8279 4.9834C25.9374 5.58255 26.0859 6.05152 26.8304 6.20713C26.7715 6.73166 26.6267 7.2628 26.3387 7.69795C25.789 8.52875 25.0792 8.92148 24.504 9.10174C24.2188 9.19111 23.9676 9.22823 23.7848 9.24296C23.6932 9.25034 23.618 9.25217 23.5632 9.25198C23.5358 9.25188 23.5135 9.25128 23.4967 9.25061L23.4757 9.2496L23.4684 9.24915L23.4656 9.24896L23.4644 9.24888C23.4644 9.24888 23.3358 9.25198 23.4633 9.2488C23.1879 9.2286 22.981 8.98896 23.0012 8.71355C23.0214 8.43935 23.259 8.23307 23.5329 8.25123L23.5366 8.25141C23.5419 8.25161 23.552 8.25193 23.5667 8.25198C23.5962 8.25208 23.6433 8.25112 23.7045 8.24619C23.8274 8.23629 24.0034 8.21065 24.2049 8.1475C24.6031 8.02272 25.1042 7.75139 25.5048 7.14609C25.7723 6.74184 25.8805 6.11191 25.8614 5.44808C25.8568 5.28679 25.8449 5.13071 25.8279 4.9834Z" fill="#D3D3D3"/>
<path d="M6.66817 28.1014C6.46898 27.6764 6.37488 27.2552 6.37488 26.9299C6.37488 25.883 5.94578 25.7994 5.44519 25.7892L5.44141 25.7892C5.49811 25.3801 5.61475 24.9778 5.82057 24.6289C6.32667 23.7708 7.01522 23.3418 7.5803 23.1321C7.86047 23.0281 8.10945 22.978 8.29117 22.9539C8.38229 22.9418 8.45735 22.9361 8.51202 22.9334C8.53939 22.9321 8.56174 22.9316 8.57856 22.9314L8.59959 22.9313L8.60688 22.9313L8.60971 22.9314L8.61091 22.9314C8.61091 22.9314 8.7616 22.9334 8.61198 22.9314C8.88805 22.9374 9.10704 23.166 9.1011 23.4421C9.09518 23.717 8.86851 23.9352 8.59405 23.9313L8.59031 23.9313C8.58509 23.9313 8.5749 23.9316 8.56022 23.9323C8.53081 23.9337 8.48378 23.9371 8.42294 23.9452C8.30074 23.9614 8.12625 23.9961 7.92828 24.0696C7.53709 24.2148 7.05065 24.5117 6.68191 25.1369C6.43566 25.5544 6.3602 26.1891 6.41355 26.851C6.45346 27.3463 6.55955 27.7886 6.66535 28.0777L6.65613 28.0002C8.18738 29.1565 9.77511 29.3517 11.2655 28.219C12.6667 27.1541 11.7785 25.067 11.5633 24.5613C11.5496 24.5291 11.5386 24.5033 11.5311 24.4846C11.2714 23.8354 11.2749 23.2908 11.6249 22.9377C13.2688 21.2794 15.6393 18.8998 17.7428 16.7882C20.1977 14.3239 22.2893 12.2243 22.4374 12.0627C22.7811 11.6877 23.1561 11.5315 24.0311 11.469C24.3 11.4498 24.6397 11.5637 25.0267 11.6936C25.8991 11.9862 27.0117 12.3594 28.0936 11.469C29.5936 10.2346 29.4686 8.10962 28.6718 7.06274H28.7282C29.9183 8.18269 30.4606 10.1954 29.4218 11.6252C27.9686 13.6252 25.9921 13.4299 24.9686 13.0472C24.0364 12.6985 23.4219 12.8825 22.9296 13.3596C20.0702 16.1305 13.9671 22.0674 13.2421 22.8674C12.5171 23.6674 12.3779 23.8584 12.6327 24.2815C13.5077 25.7346 13.4921 28.8908 10.9139 29.7893C8.55449 30.4651 7.21513 29.2685 6.66817 28.1014Z" fill="#D3D3D3"/>
</svg>

<svg xmlns="http://www.w3.org/2000/svg" width="32" height="32" fill="none"><path fill="#9B9B9B" fill-rule="evenodd" d="M26.706 4.222c-.195-.952-.935-2.009-2.004-2.644-1.131-.672-2.64-.879-4.287-.079-1.81.879-2.459 2.298-2.568 3.59-.097 1.155.237 2.183.357 2.55l.016.05c.055.17.067.301.055.396a.4.4 0 0 1-.13.247c-.344.344-4.054 4.019-6.757 6.696l-.031.031-2.71 2.684c-.203.202-.317.277-.37.305-.024.012-.027.012-.03.011h-.004a1.76 1.76 0 0 1-.33-.063l-.082-.02c-.186-.046-.434-.107-.726-.157-.796-.135-1.818-.215-2.831.083-1.055.31-2.027 1.01-2.704 2.286-1.521 2.864.315 6.492 3.8 6.6.003.04.005.087.005.142 0 .89.447 2.1 1.383 2.966 1.003.928 2.505 1.406 4.432.855l.027-.008.026-.01c1.692-.589 2.535-1.941 2.806-3.293.243-1.216.049-2.522-.445-3.47.09-.109.21-.244.38-.431.696-.768 6.76-6.669 9.642-9.461.138-.134.244-.183.342-.201.106-.02.304-.023.65.107 1.271.475 3.8.723 5.613-1.77.997-1.374.885-3.067.275-4.365-.603-1.282-1.81-2.43-3.34-2.6a.796.796 0 0 1-.253-.058l-.003-.006a1.312 1.312 0 0 1-.084-.303c-.015-.079-.03-.161-.046-.26l-.006-.034c-.019-.11-.04-.235-.068-.366ZM13.477 23.744l.002.003-.002-.003Z" clip-rule="evenodd"/><path fill="#fff" d="M9.352 18.453c.953-.945 8.984-8.898 9.5-9.414.515-.515.485-1.14.32-1.656-.211-.656-1.225-3.575 1.68-4.984 2.671-1.297 4.609.726 4.875 2.023.187.917.132 1.688 1.328 1.82 2.18.243 3.82 3.383 2.367 5.383-1.453 2-3.43 1.805-4.453 1.422-.933-.349-1.547-.165-2.04.313-2.859 2.77-8.962 8.707-9.687 9.507-.725.8-.864.991-.61 1.415.876 1.453.86 4.609-1.718 5.507-3.219.922-4.539-1.64-4.539-2.86 0-1.046-.43-1.13-.93-1.14-2.726-.055-4.195-2.867-2.992-5.133 1.098-2.068 3.016-2.101 4.484-1.851 1.175.2 1.461.594 2.415-.352Z"/><path fill="#D3D3D3" d="M25.828 4.983c.11.6.258 1.069 1.002 1.224-.058.525-.203 1.056-.491 1.49a3.396 3.396 0 0 1-1.835 1.405 3.31 3.31 0 0 1-.94.15l-.067-.001-.021-.001h-.008l-.002-.001h-.002s-.128.003 0 0a.5.5 0 0 1 .069-.998h.004a1.665 1.665 0 0 0 .168-.005 2.31 2.31 0 0 0 .5-.098c.398-.125.9-.397 1.3-1.002.267-.404.376-1.034.356-1.698a5.41 5.41 0 0 0-.033-.465ZM6.668 28.101c-.199-.425-.293-.846-.293-1.171 0-1.047-.43-1.13-.93-1.14h-.004c.057-.41.174-.812.38-1.161a3.396 3.396 0 0 1 1.76-1.497 3.306 3.306 0 0 1 .931-.199l.067-.002h.031s.152.002.002 0a.5.5 0 0 1-.018 1H8.59a1.649 1.649 0 0 0-.167.014c-.122.016-.297.051-.495.125-.39.145-.877.442-1.246 1.067-.246.417-.322 1.052-.268 1.714.04.495.146.938.251 1.227L6.656 28c1.531 1.157 3.12 1.352 4.61.219 1.4-1.065.512-3.152.297-3.658l-.032-.076c-.26-.65-.256-1.194.094-1.547 1.644-1.659 4.014-4.038 6.118-6.15 2.455-2.464 4.546-4.564 4.694-4.725.344-.375.72-.532 1.594-.594.269-.02.609.095.996.225.872.292 1.985.665 3.067-.225 1.5-1.234 1.375-3.36.578-4.406h.056c1.19 1.12 1.733 3.132.694 4.562-1.453 2-3.43 1.805-4.453 1.422-.933-.349-1.547-.165-2.04.313-2.859 2.77-8.962 8.707-9.687 9.507-.725.8-.864.991-.61 1.415.876 1.453.86 4.609-1.718 5.507-2.36.676-3.699-.52-4.246-1.688Z"/></svg>
